src/assets/voice_message_icons/logout.svg

<svg fill="none" height="19" viewBox="0 0 19 20" width="19" xmlns="http://www.w3.org/2000/svg"><g fill="#f44747"><path clip-rule="evenodd" d="m3.38992 1.8623c-.01433 0-.02866.00042-.04297.00124-.44999.02581-.84482.25466-1.11063.59136-.2599.32922-.38571.74382-.37316 1.1543v11.7814c-.01236.4104.11351.8248.37334 1.1539.26566.3365.66016.5654 1.10986.5915.0145.0009.02903.0013.04356.0013h6.99418c.0144 0 .0287-.0004.043-.0012.4499-.0258.8448-.2546 1.1107-.5911.26-.3292.386-.7438.3737-1.1544v-1.989c0-.4142-.3358-.75-.75-.75s-.75.3358-.75.75v2.0018c0 .0098.0002.0196.0005.0294.0033.0819-.0235.1471-.0513.1823-.0098.0125-.018.0191-.0226.0222h-6.9016c-.00465-.0031-.01282-.0097-.02266-.0222-.02777-.0352-.05447-.1004-.05126-.1823.00039-.0098.00058-.0196.00058-.0294v-11.80717c0-.00995-.0002-.01991-.0006-.02985-.00326-.08184.02341-.14695.05111-.18203.00974-.01235.01783-.01891.02244-.02205h6.90199c.0046.00314.0128.00973.0226.02222.0278.03515.0546.10036.0513.18233-.0003.00979-.0005.01959-.0005.02938v2.00179c0 .41421.3358.75.75.75s.75-.33579.75-.75v-1.989c.0123-.41056-.1137-.82518-.3737-1.15437-.2659-.33658-.6608-.5653-1.1107-.59111-.0143-.00082-.0286-.00124-.043-.00124zm10.20308 4.82717c.2928-.29289.7677-.29289 1.0606 0l2.5312 2.84185c0 .20797-.0847.39617-.2214.53208l-2.3098 2.3098c-.2929.2929-.7678.2929-1.0606 0-.2929-.2929-.2929-.7678 0-1.0607l1.0311-1.0312h-7.89765c-.41421 0-.75-.33577-.75-.74998s.33579-.75.75-.75h7.89765l-1.0311-1.03118c-.2929-.2929-.2929-.76777 0-1.06067z" fill-rule="evenodd"/><path d="m3.34695 1.86354-.01432-.24959zm-1.11063.59136.19623.15491zm-.37316 1.1543h.25012l-.00024-.00764zm0 11.7814.25.0075v-.0075zm.37334 1.1539.19622-.1549zm1.10986.5915-.01452.2496h.00001zm7.08074.0001-.0143-.2496zm1.1107-.5911-.1962-.155zm.3737-1.1544h-.2501l.0002.0075zm-1.4995.0422-.2498.0097v.0001zm-.0513.1823-.1961-.155zm-.0226.0222v.25c.0499 0 .0987-.0149.14-.0429zm-6.9016 0-.14027.2069c.04139.0281.09026.0431.14027.0431zm-.02266-.0222-.19623.1549zm-.05126-.1823-.24981-.0098zm-.00002-11.86642-.2498.00995zm.05111-.18203.19622.1549zm.02244-.02205v-.25c-.05017 0-.09919.0151-.14066.04333zm6.90199 0 .14-.20708c-.0413-.02797-.0901-.04292-.14-.04292zm.0226.02222-.1961.15497zm.0513.18233-.2498-.00979v.00001zm1.4995.04217-.25-.00753v.00753zm-.3737-1.15437-.1962.15498zm-1.1107-.59111.0143-.24959zm4.2265 4.82593.1867-.16627c-.0032-.0036-.0065-.0071-.0099-.0105zm-1.0606 0-.1768-.17677zm3.5918 2.84185h.25c0-.06132-.0225-.1205-.0633-.16628zm-.2214.53208-.1762-.17739-.0006.00056zm-2.3098 2.3098.1768.1767zm-1.0606 0-.1768.1767zm1.0311-2.0919.1768.1768c.0715-.0715.0929-.179.0542-.2725-.0387-.0934-.1299-.1543-.231-.1543zm0-1.49998v.25c.1012 0 .1923-.06091.231-.15433s.0173-.20095-.0542-.27245zm-1.0311-1.03118-.1768.17677zm-10.23173-5.63701c.00954-.00055.01909-.00083.02865-.00083v-.5c-.01911 0-.03821.00055-.05729.00165zm-.92872.49668c.22588-.28613.55688-.47535.92872-.49668l-.02864-.49918c-.52814.0303-.9868.29877-1.29253.68604zm-.31951.99175c-.01087-.3556.09843-.71171.31951-.99175l-.39245-.30982c-.29872.3784-.44105.8515-.42682 1.31686zm.00012 11.78904v-11.7814h-.5v11.7814zm.31956.999c-.22103-.28-.33038-.6359-.31967-.9915l-.49978-.015c-.01401.4652.12838.9381.427 1.3163zm.92816.4969c-.37163-.0217-.70239-.2109-.92816-.4969l-.39245.3098c.30555.3871.7638.6555 1.29157.6862zm.02904.0008c-.00969 0-.01937-.0003-.02906-.0008l-.02901.4991c.01933.0011.03869.0017.05807.0017zm6.99418 0h-6.99418v.5h6.99418zm.0287-.0008c-.0096.0005-.0191.0008-.0287.0008v.5c.0191 0 .0382-.0005.0573-.0016zm.9288-.4965c-.226.286-.557.4752-.9288.4965l.0286.4992c.5281-.0303.9867-.2986 1.2925-.6858zm.32-.9919c.0107.3557-.0988.7119-.32.9919l.3923.3099c.2989-.3783.4415-.8514.4275-1.3168zm-.0001-1.9965v1.989h.5v-1.989zm-.5-.5c.2761 0 .5.2238.5.5h.5c0-.5523-.4477-1-1-1zm-.5.5c0-.2762.2238-.5.5-.5v-.5c-.5523 0-1 .4477-1 1zm0 2.0018v-2.0018h-.5v2.0018zm.0004.0196c-.0003-.0066-.0004-.0131-.0004-.0196h-.5c0 .0131.0002.0261.0007.0391zm-.105.3471c.0668-.0845.1104-.209.105-.3471l-.4997.0196c.0005.0112-.0012.0193-.0026.0237-.0007.0022-.0012.003-.0009.0024.0003-.0004.0019-.0035.0059-.0086zm-.0788.0743c.0267-.018.0536-.0424.0788-.0743l-.3923-.31c.0055-.0069.016-.0181.0334-.0299zm-7.0416.0429h6.9016v-.5h-6.9016zm-.21889-.1173c.02516.0319.05203.0562.07862.0742l.28054-.4138c.0173.0117.02782.0228.03329.0298zm-.10484-.347c-.00541.1381.03812.2625.10484.347l.39245-.3098c.004.005.00561.0081.00583.0086.00032.0006-.00015-.0002-.00085-.0024-.00139-.0045-.00309-.0126-.00265-.0238zm.00039-.0196c0 .0065-.00013.013-.00039.0196l.49962.0196c.00051-.0131.00077-.0262.00077-.0392zm0-11.80717v11.80717h.5v-11.80717zm-.0004-.0199c.00027.00663.0004.01327.0004.0199h.5c0-.01327-.00027-.02654-.00079-.03981zm.10468-.34689c-.06668.08447-.11018.20884-.10468.34689l.49961-.0199c-.00045-.01119.00124-.0192.00261-.02356.00069-.00219.00114-.00296.00081-.00232-.00024.00046-.00187.0036-.0059.0087zm.07801-.07381c-.0264.01796-.05305.04219-.07801.07381l.39245.30981c-.00547.00694-.01595.01804-.03312.02973zm7.04265-.04333h-6.90199v.5h6.90199zm.2188.11724c-.0252-.03193-.0521-.05631-.0788-.07432l-.2801.41417c-.0173-.01175-.0279-.02294-.0334-.0299zm.105.34711c.0054-.13817-.0382-.2626-.105-.34711l-.3923.30995c-.004-.00507-.0056-.00817-.0059-.00861-.0003-.00061.0002.00019.0009.0024.0014.00442.0031.01251.0026.02378zm-.0004.01958c0-.00652.0001-.01305.0004-.0196l-.4997-.01956c-.0005.01303-.0007.02609-.0007.03916zm0 2.00179v-2.00179h-.5v2.00179zm.5.5c-.2762 0-.5-.22386-.5-.5h-.5c0 .55228.4477 1 1 1zm.5-.5c0 .27614-.2239.5-.5.5v.5c.5523 0 1-.44772 1-1zm0-1.989v1.989h.5v-1.989zm-.3199-.99939c.2212.28003.3307.63617.32.99187l.4998.01505c.014-.46543-.1286-.93853-.4275-1.31688zm-.9288-.4965c.3718.02133.7028.21046.9288.4965l.3923-.30996c-.3058-.38712-.7644-.65543-1.2925-.68572zm-.0287-.00083c.0096 0 .0191.00028.0287.00083l.0286-.49918c-.0191-.0011-.0382-.00165-.0573-.00165zm-6.99418 0h6.99418v-.5h-6.99418zm11.44048 4.4004c-.3905-.39053-1.0237-.39053-1.4142 0l.3535.35355c.1953-.19526.5119-.19526.7071 0zm2.5411 2.85234-2.5312-2.84184-.3734.33255 2.5312 2.84184zm-.2319.87566c.1821-.1809.2952-.43215.2952-.70938h-.5c0 .13871-.0562.26384-.1476.35469zm-2.3092 2.3092 2.3098-2.3098-.3536-.35353-2.3098 2.30983zm-1.4142 0c.3905.3906 1.0237.3906 1.4142 0l-.3536-.3535c-.1952.1952-.5118.1952-.7071 0zm0-1.4142c-.3905.3905-.3905 1.0237 0 1.4142l.3535-.3535c-.1952-.1953-.1952-.5119 0-.7071zm1.0312-1.0312-1.0312 1.0312.3535.3536 1.0312-1.0312zm-7.72095.4268h7.89765v-.5h-7.89765zm-1-.99998c0 .55228.44772.99998 1 .99998v-.5c-.27614 0-.5-.22384-.5-.49998zm1-1c-.55228 0-1 .44772-1 1h.5c0-.27614.22386-.5.5-.5zm7.89765 0h-7.89765v.5h7.89765zm-1.2079-.60441 1.0312 1.03119.3535-.35356-1.0312-1.03118zm0-1.41421c-.3905.39052-.3905 1.02369 0 1.41421l.3535-.35355c-.1952-.19526-.1952-.51185 0-.70711z"/></g></svg>

<svg width="19" height="19" viewBox="0 0 19 20" fill="none" xmlns="http://www.w3.org/2000/svg">
<path fill-rule="evenodd" clip-rule="evenodd" d="M3.38992 1.8623C3.37559 1.8623 3.36126 1.86272 3.34695 1.86354C2.89696 1.88935 2.50213 2.1182 2.23632 2.4549C1.97642 2.78412 1.85061 3.19872 1.86316 3.6092V15.3906C1.8508 15.801 1.97667 16.2154 2.2365 16.5445C2.50216 16.881 2.89666 17.1099 3.34636 17.136C3.36086 17.1369 3.37539 17.1373 3.38992 17.1373H10.3841C10.3985 17.1373 10.4128 17.1369 10.4271 17.1361C10.877 17.1103 11.2719 16.8815 11.5378 16.545C11.7978 16.2158 11.9238 15.8012 11.9115 15.3906V13.4016C11.9115 12.9874 11.5757 12.6516 11.1615 12.6516C10.7473 12.6516 10.4115 12.9874 10.4115 13.4016V15.4034C10.4115 15.4132 10.4117 15.423 10.412 15.4328C10.4153 15.5147 10.3885 15.5799 10.3607 15.6151C10.3509 15.6276 10.3427 15.6342 10.3381 15.6373H3.4365C3.43185 15.6342 3.42368 15.6276 3.41384 15.6151C3.38607 15.5799 3.35937 15.5147 3.36258 15.4328C3.36297 15.423 3.36316 15.4132 3.36316 15.4034V3.59623C3.36316 3.58628 3.36296 3.57632 3.36256 3.56638C3.3593 3.48454 3.38597 3.41943 3.41367 3.38435C3.42341 3.372 3.4315 3.36544 3.43611 3.3623H10.3381C10.3427 3.36544 10.3509 3.37203 10.3607 3.38452C10.3885 3.41967 10.4153 3.48488 10.412 3.56685C10.4117 3.57664 10.4115 3.58644 10.4115 3.59623V5.59802C10.4115 6.01223 10.7473 6.34802 11.1615 6.34802C11.5757 6.34802 11.9115 6.01223 11.9115 5.59802V3.60902C11.9238 3.19846 11.7978 2.78384 11.5378 2.45465C11.2719 2.11807 10.877 1.88935 10.4271 1.86354C10.4128 1.86272 10.3985 1.8623 10.3841 1.8623H3.38992ZM13.593 6.68947C13.8858 6.39658 14.3607 6.39658 14.6536 6.68947L17.1848 9.53132C17.1848 9.73929 17.1001 9.92749 16.9634 10.0634L14.6536 12.3732C14.3607 12.6661 13.8858 12.6661 13.593 12.3732C13.3001 12.0803 13.3001 11.6054 13.593 11.3125L14.6241 10.2813H6.72645C6.31224 10.2813 5.97645 9.94553 5.97645 9.53132C5.97645 9.11711 6.31224 8.78132 6.72645 8.78132H14.6241L13.593 7.75014C13.3001 7.45724 13.3001 6.98237 13.593 6.68947Z" fill="#F44747"/>
<path d="M3.34695 1.86354L3.33263 1.61395L3.33263 1.61395L3.34695 1.86354ZM2.23632 2.4549L2.43255 2.60981L2.43255 2.60981L2.23632 2.4549ZM1.86316 3.6092L2.11328 3.6092L2.11304 3.60156L1.86316 3.6092ZM1.86316 15.3906L2.11316 15.3981V15.3906H1.86316ZM2.2365 16.5445L2.43272 16.3896L2.43272 16.3896L2.2365 16.5445ZM3.34636 17.136L3.33184 17.3856L3.33185 17.3856L3.34636 17.136ZM10.4271 17.1361L10.4128 16.8865L10.4128 16.8865L10.4271 17.1361ZM11.5378 16.545L11.3416 16.39L11.3416 16.39L11.5378 16.545ZM11.9115 15.3906H11.6614L11.6616 15.3981L11.9115 15.3906ZM10.412 15.4328L10.1622 15.4425L10.1622 15.4426L10.412 15.4328ZM10.3607 15.6151L10.1646 15.4601L10.1646 15.4601L10.3607 15.6151ZM10.3381 15.6373V15.8873C10.388 15.8873 10.4368 15.8724 10.4781 15.8444L10.3381 15.6373ZM3.4365 15.6373L3.29623 15.8442C3.33762 15.8723 3.38649 15.8873 3.4365 15.8873V15.6373ZM3.41384 15.6151L3.21761 15.77L3.21761 15.77L3.41384 15.6151ZM3.36258 15.4328L3.11277 15.423L3.11277 15.423L3.36258 15.4328ZM3.36256 3.56638L3.11276 3.57633L3.11276 3.57633L3.36256 3.56638ZM3.41367 3.38435L3.60989 3.53925L3.60989 3.53925L3.41367 3.38435ZM3.43611 3.3623V3.1123C3.38594 3.1123 3.33692 3.1274 3.29545 3.15563L3.43611 3.3623ZM10.3381 3.3623L10.4781 3.15522C10.4368 3.12725 10.388 3.1123 10.3381 3.1123V3.3623ZM10.3607 3.38452L10.1646 3.53949L10.1646 3.53949L10.3607 3.38452ZM10.412 3.56685L10.1622 3.55706L10.1622 3.55707L10.412 3.56685ZM11.9115 3.60902L11.6615 3.60149V3.60902H11.9115ZM11.5378 2.45465L11.3416 2.60963L11.3416 2.60963L11.5378 2.45465ZM10.4271 1.86354L10.4414 1.61395L10.4414 1.61395L10.4271 1.86354ZM14.6536 6.68947L14.8403 6.5232C14.8371 6.5196 14.8338 6.5161 14.8304 6.5127L14.6536 6.68947ZM13.593 6.68947L13.4162 6.5127L13.4162 6.5127L13.593 6.68947ZM17.1848 9.53132H17.4348C17.4348 9.47 17.4123 9.41082 17.3715 9.36504L17.1848 9.53132ZM16.9634 10.0634L16.7872 9.88601L16.7866 9.88657L16.9634 10.0634ZM14.6536 12.3732L14.8304 12.5499L14.8304 12.5499L14.6536 12.3732ZM13.593 12.3732L13.4162 12.5499L13.4162 12.5499L13.593 12.3732ZM14.6241 10.2813L14.8009 10.4581C14.8724 10.3866 14.8938 10.2791 14.8551 10.1856C14.8164 10.0922 14.7252 10.0313 14.6241 10.0313V10.2813ZM14.6241 8.78132V9.03132C14.7253 9.03132 14.8164 8.97041 14.8551 8.87699C14.8938 8.78357 14.8724 8.67604 14.8009 8.60454L14.6241 8.78132ZM13.593 7.75014L13.4162 7.92691L13.4162 7.92691L13.593 7.75014ZM3.36127 2.11313C3.37081 2.11258 3.38036 2.1123 3.38992 2.1123V1.6123C3.37081 1.6123 3.35171 1.61285 3.33263 1.61395L3.36127 2.11313ZM2.43255 2.60981C2.65843 2.32368 2.98943 2.13446 3.36127 2.11313L3.33263 1.61395C2.80449 1.64425 2.34583 1.91272 2.0401 2.29999L2.43255 2.60981ZM2.11304 3.60156C2.10217 3.24596 2.21147 2.88985 2.43255 2.60981L2.0401 2.29999C1.74138 2.67839 1.59905 3.15149 1.61328 3.61685L2.11304 3.60156ZM2.11316 15.3906V3.6092H1.61316V15.3906H2.11316ZM2.43272 16.3896C2.21169 16.1096 2.10234 15.7537 2.11305 15.3981L1.61327 15.3831C1.59926 15.8483 1.74165 16.3212 2.04027 16.6994L2.43272 16.3896ZM3.36088 16.8865C2.98925 16.8648 2.65849 16.6756 2.43272 16.3896L2.04027 16.6994C2.34582 17.0865 2.80407 17.3549 3.33184 17.3856L3.36088 16.8865ZM3.38992 16.8873C3.38023 16.8873 3.37055 16.887 3.36086 16.8865L3.33185 17.3856C3.35118 17.3867 3.37054 17.3873 3.38992 17.3873V16.8873ZM10.3841 16.8873H3.38992V17.3873H10.3841V16.8873ZM10.4128 16.8865C10.4032 16.887 10.3937 16.8873 10.3841 16.8873V17.3873C10.4032 17.3873 10.4223 17.3868 10.4414 17.3857L10.4128 16.8865ZM11.3416 16.39C11.1156 16.676 10.7846 16.8652 10.4128 16.8865L10.4414 17.3857C10.9695 17.3554 11.4281 17.0871 11.7339 16.6999L11.3416 16.39ZM11.6616 15.3981C11.6723 15.7538 11.5628 16.11 11.3416 16.39L11.7339 16.6999C12.0328 16.3216 12.1754 15.8485 12.1614 15.3831L11.6616 15.3981ZM11.6615 13.4016V15.3906H12.1615V13.4016H11.6615ZM11.1615 12.9016C11.4376 12.9016 11.6615 13.1254 11.6615 13.4016H12.1615C12.1615 12.8493 11.7138 12.4016 11.1615 12.4016V12.9016ZM10.6615 13.4016C10.6615 13.1254 10.8853 12.9016 11.1615 12.9016V12.4016C10.6092 12.4016 10.1615 12.8493 10.1615 13.4016H10.6615ZM10.6615 15.4034V13.4016H10.1615V15.4034H10.6615ZM10.6619 15.423C10.6616 15.4164 10.6615 15.4099 10.6615 15.4034H10.1615C10.1615 15.4165 10.1617 15.4295 10.1622 15.4425L10.6619 15.423ZM10.5569 15.7701C10.6237 15.6856 10.6673 15.5611 10.6619 15.423L10.1622 15.4426C10.1627 15.4538 10.161 15.4619 10.1596 15.4663C10.1589 15.4685 10.1584 15.4693 10.1587 15.4687C10.159 15.4683 10.1606 15.4652 10.1646 15.4601L10.5569 15.7701ZM10.4781 15.8444C10.5048 15.8264 10.5317 15.802 10.5569 15.7701L10.1646 15.4601C10.1701 15.4532 10.1806 15.442 10.198 15.4302L10.4781 15.8444ZM3.4365 15.8873H10.3381V15.3873H3.4365V15.8873ZM3.21761 15.77C3.24277 15.8019 3.26964 15.8262 3.29623 15.8442L3.57677 15.4304C3.59407 15.4421 3.60459 15.4532 3.61006 15.4602L3.21761 15.77ZM3.11277 15.423C3.10736 15.5611 3.15089 15.6855 3.21761 15.77L3.61006 15.4602C3.61406 15.4652 3.61567 15.4683 3.61589 15.4688C3.61621 15.4694 3.61574 15.4686 3.61504 15.4664C3.61365 15.4619 3.61195 15.4538 3.61239 15.4426L3.11277 15.423ZM3.11316 15.4034C3.11316 15.4099 3.11303 15.4164 3.11277 15.423L3.61239 15.4426C3.6129 15.4295 3.61316 15.4164 3.61316 15.4034H3.11316ZM3.11316 3.59623V15.4034H3.61316V3.59623H3.11316ZM3.11276 3.57633C3.11303 3.58296 3.11316 3.5896 3.11316 3.59623H3.61316C3.61316 3.58296 3.61289 3.56969 3.61237 3.55642L3.11276 3.57633ZM3.21744 3.22944C3.15076 3.31391 3.10726 3.43828 3.11276 3.57633L3.61237 3.55643C3.61192 3.54524 3.61361 3.53723 3.61498 3.53287C3.61567 3.53068 3.61612 3.52991 3.61579 3.53055C3.61555 3.53101 3.61392 3.53415 3.60989 3.53925L3.21744 3.22944ZM3.29545 3.15563C3.26905 3.17359 3.2424 3.19782 3.21744 3.22944L3.60989 3.53925C3.60442 3.54619 3.59394 3.55729 3.57677 3.56898L3.29545 3.15563ZM10.3381 3.1123H3.43611V3.6123H10.3381V3.1123ZM10.5569 3.22954C10.5317 3.19761 10.5048 3.17323 10.4781 3.15522L10.198 3.56939C10.1807 3.55764 10.1701 3.54645 10.1646 3.53949L10.5569 3.22954ZM10.6619 3.57665C10.6673 3.43848 10.6237 3.31405 10.5569 3.22954L10.1646 3.53949C10.1606 3.53442 10.159 3.53132 10.1587 3.53088C10.1584 3.53027 10.1589 3.53107 10.1596 3.53328C10.161 3.5377 10.1627 3.54579 10.1622 3.55706L10.6619 3.57665ZM10.6615 3.59623C10.6615 3.58971 10.6616 3.58318 10.6619 3.57663L10.1622 3.55707C10.1617 3.5701 10.1615 3.58316 10.1615 3.59623H10.6615ZM10.6615 5.59802V3.59623H10.1615V5.59802H10.6615ZM11.1615 6.09802C10.8853 6.09802 10.6615 5.87416 10.6615 5.59802H10.1615C10.1615 6.1503 10.6092 6.59802 11.1615 6.59802V6.09802ZM11.6615 5.59802C11.6615 5.87416 11.4376 6.09802 11.1615 6.09802V6.59802C11.7138 6.59802 12.1615 6.1503 12.1615 5.59802H11.6615ZM11.6615 3.60902V5.59802H12.1615V3.60902H11.6615ZM11.3416 2.60963C11.5628 2.88966 11.6723 3.2458 11.6616 3.6015L12.1614 3.61655C12.1754 3.15112 12.0328 2.67802 11.7339 2.29967L11.3416 2.60963ZM10.4128 2.11313C10.7846 2.13446 11.1156 2.32359 11.3416 2.60963L11.7339 2.29967C11.4281 1.91255 10.9695 1.64424 10.4414 1.61395L10.4128 2.11313ZM10.3841 2.1123C10.3937 2.1123 10.4032 2.11258 10.4128 2.11313L10.4414 1.61395C10.4223 1.61285 10.4032 1.6123 10.3841 1.6123V2.1123ZM3.38992 2.1123H10.3841V1.6123H3.38992V2.1123ZM14.8304 6.5127C14.4399 6.12217 13.8067 6.12217 13.4162 6.5127L13.7697 6.86625C13.965 6.67099 14.2816 6.67099 14.4768 6.86625L14.8304 6.5127ZM17.3715 9.36504L14.8403 6.5232L14.4669 6.85575L16.9981 9.69759L17.3715 9.36504ZM17.1396 10.2407C17.3217 10.0598 17.4348 9.80855 17.4348 9.53132H16.9348C16.9348 9.67003 16.8786 9.79516 16.7872 9.88601L17.1396 10.2407ZM14.8304 12.5499L17.1402 10.2401L16.7866 9.88657L14.4768 12.1964L14.8304 12.5499ZM13.4162 12.5499C13.8067 12.9405 14.4399 12.9405 14.8304 12.5499L14.4768 12.1964C14.2816 12.3916 13.965 12.3916 13.7697 12.1964L13.4162 12.5499ZM13.4162 11.1357C13.0257 11.5262 13.0257 12.1594 13.4162 12.5499L13.7697 12.1964C13.5745 12.0011 13.5745 11.6845 13.7697 11.4893L13.4162 11.1357ZM14.4474 10.1045L13.4162 11.1357L13.7697 11.4893L14.8009 10.4581L14.4474 10.1045ZM6.72645 10.5313H14.6241V10.0313H6.72645V10.5313ZM5.72645 9.53132C5.72645 10.0836 6.17417 10.5313 6.72645 10.5313V10.0313C6.45031 10.0313 6.22645 9.80746 6.22645 9.53132H5.72645ZM6.72645 8.53132C6.17417 8.53132 5.72645 8.97904 5.72645 9.53132H6.22645C6.22645 9.25518 6.45031 9.03132 6.72645 9.03132V8.53132ZM14.6241 8.53132H6.72645V9.03132H14.6241V8.53132ZM13.4162 7.92691L14.4474 8.9581L14.8009 8.60454L13.7697 7.57336L13.4162 7.92691ZM13.4162 6.5127C13.0257 6.90322 13.0257 7.53639 13.4162 7.92691L13.7697 7.57336C13.5745 7.3781 13.5745 7.06151 13.7697 6.86625L13.4162 6.5127Z" fill="#F44747"/>
</svg>
